!!!COM: Peter Cornelius
!!!CNT: Deutsch
!!!TXO: Deutsch
!!!OTL: Dein Bildnis
!!!LYR: Cornelius
!!!OPR: An Bertha
!!!OPS: Op. 15
!!!ONM: No. 4
!!!ENC: Ben Fuhrman
!!!YOR: CD Sheet Music, Mid-Romantic German Lieder: The Ultimate Collection.
!!!YOR: CD Sheet Music, LLC 2001
!!!ODT: 1865
!!NB: Only vocal melody encoded.
!!NB: First instance of melodic material only encoded.
!!created: 2/4/10 1:14PM
!!proofed and posted: 2/4/10 1:15PM
**kern	**silbe
*clef G2	*
*k[f#]	*
*M3/4	*
*MM[Andantino con moto]	*
=6	=6
4r	.
4r	.
8r	.
{8d	{Halb
=7	=7
8.b	Da2m-
16b	-mer-
4.b	-schein,
8g	halb
=8	=8
8d	Ker-
8e	-zen-
4.f#	-licht
8f#	sich
=9	=9
8a#	um
8c#	dein
8dd	lie-
8cc#	-bes
8b	Bild-
8ee	-nis
=10	=10
4.cc#}	flicht;}
8r	.
8r	.
{8a	{da
=11	=11
8a	fal-
8a	-len
8f#	mir
8a	Ge-
8dd	-dan-
8b	-ken
=12	=12
2g#}	ein,}
8r	.
{8b	{halb
=13	=13
8.a#	Ker-
16b	-zen-
4cc#	-licht,
4dd	halb
=14	=14
8.b	Da2m-
16ccn	-mer-
[2dd	-schein.
=15	=15
2dd]}	|}
4r	.
=16	=16
4r	.
4r	.
8r	.
{8d	{Halb
=17	=17
8.b	Da2m-
16b	-mer-
4.b	-schein,
8dd	o
=18	=18
8gg	Ku2s-
8ee	-sen-
4.gg	-zeit!
8b	halb
=19	=19
8.a#	Ker-
16a#	-zen-
4.a#	-licht,
8cc#	o
=20	=20
8ff#	Braut-
8dd#	-ge-
[2ff#	-leit!
=21	=21
4ff#_	|
8ff#]}	|}
8r	.
4r	.
=22	=22
2.r	.
=23	=23
4r	.
8r	.
{8dd	{Es
8cc#	kommt
8dd	die
=24	=24
4.gg	Zeit,
8b	o
8ee	za-
8dd	-ge
=25	=25
4.cc#	nicht,
8cc#	dass
8dd	uns
8ee	der
=26	=26
4.ee	Won-
8cc#	-ne
8a#	Kranz
8ee	um-
=27	=27
4.dd#}	flicht,}
{8dd#	{dass
8cc##	heim-
8dd#	-lich
=28	=28
4.ff#	traut
8dd#	uns
(12dd#	hu2l-
12cc#)	|
12d#	-let
=29	=29
2g#	ein
4bn	halb
=30	=30
8.a#	Ker-
16bn	-zen-
4cc#	-licht,
4dd	halb
=31	=31
8.b	Da2m-
16ccn	-mer-
4dd}	-schein!}
4r	.
=32	=32
4r	.
8r	.
{8b	{Halb
[4ee	Ker-
=33	=33
8ee]	|
8cc#	-zen-
[4ee	-licht,
8ee]}	|}
8r	.
=34	=34
4r	.
8r	.
{8gn	{halb
(8g	Da2m-
16f#	|
16g)	|
=35	=35
[2b	|
8b]	|
8a	-mer
=36	=36
4g}	-schein!}
8r	.
{8d	{Wo
8g	heim-
8a	-lich
=37	=37
4.b	traut
8g	uns
8a	hu2l-
8g	-let
=38	=38
4.f#	ein
8f#	halb
8a.#	Ker-
16b	-zen
=39	=39
4.cc#	-licht,
8a#	halb
8cc#	Da2m-
8a#	-mer-
=40	=40
8f#	-schein,
8f#	halb
4ff#	Ker-
4ffn	-zen-
=41	=41
2ee	-licht,
4cc#	halb
=42	=42
8.b	Da2m-
16b	-mer-
[2b	-schein!
=43	=43
2.b_	|
=44	=44
8b]}	|}
8r	.
4r	.
==	==
*-	*-
